!!COM: Felix Mendelssohn
!!!CNT: Deutsch
!!!TXO: Deutsch
!!!OTL: Fru2hlingslied
!!!LYR: Lenau
!!!OPS: Op. 47
!!!ONM: No. 3
!!!ENC: Daniel Alt & Leigh VanHandel
!!!YOR: Sa2mmtliche Lieder fu2r eine Singstimme
!!!YOR: Neu revidirt von Dr. L. Benda, Ausgabe fu2r mittlere Stimme
!!!YOR: Braunschweig. Henry Litolff's Verlag. Boston and New York: Arthur P. Schmidt.
!!!ODT: 1839/
**kern	**silbe
*staff1	*
=1-	=1-
*clefG2	*
*k[b-]	*
*M9/8	*
4.r	.
4.r	.
{4f	{Durch
8g	den
=2	=2
[4.a	Wald,
4a]	|
8c	den
4f	dun-
8a	-keln,
=3	=3
4.cc}	geht}
{4.b-	{hol-
4.a	-de
=4	=4
[4.g	Fru2h-
4g]	|
8g	-lings
4a	mor-
8g	-gen-
=5	=5
4.f	-stun-
4e}	-de,}
8r	.
{8e	{durch
8d	|
8c	den
=6	=6
[4.f	Wald
4f]	|
8f	vom
4g	Him-
8a-	-mel
=7	=7
2.a}	weht}
{4a	{ei-
8a	-ne
=8	=8
2.a	lei-
4.a	-se
=9	=9
2.bn	Lie-
4.a	-bes-
=10	=10
2.a	-kun-
4.g#	|
=11	=11
4.a}	-de.}
4r	.
8r	.
4r	.
8r	.
=12	=12
{4a	{Se-
8g	-lig
4f	lauscht
8e	der
4d	gru2-
8e	-ne
=13	=13
4.f}	Baum,}
4.r	.
{4f	{und
8f	er
=14	=14
[4.b-	taucht
4b-]	|
8a	mit
4g	al-
8d	-len
=15	=15
4.f	Zwei-
4e}	-gen}
8r	.
{8e	{in
8d	|
8c	den
=16	=16
[4.cc	scho2-
4cc]	|
8a	-nen
4a	Fru2h-
8g	-lings-
=17	=17
[4.f	-traum,
4f]}	|}
8r	.
{gq	{in
8f	|
8e	|
8f	den
=18	=18
[4.g	vol-
4g]	|
8g	-len
aq	Le-
8g	|
8g-	|
8gn	-bens-
=19	=19
4.b-	-rei-
4a}	-gen,}
8r	.
{4g	{in
8g	den
=20	=20
[4.cc	scho2-
4cc]	|
8a	-nen
4a	Fru2h-
8g	-lings-
=21	=21
[4.f	-traum,
4f]}	|}
8r	.
{8f	{in
8e	|
8f	den
=22	=22
4.a	vol-
4.f	-len
8f	Le-
8e	|
8f	-bens-
=23	=23
4.cc	-rei-
4.a}	-gen,}
4r	.
{8f	{den
=24	=24
[2.dd	vol-
4.dd]	|
=25	=25
[4.ff	|
4ff]	|
8f	-len
4e	Le-
8f	-bens-
=26	=26
[2.a	-rei-
4a]	|
8g	|
=27	=27
4.f}	-gen.}
4.r	.
4.r	.
=28	=28
4.r	.
4.r	.
4.r	.
=29	=29
4.r	.
4.r	.
4.r	.
=30	=30
4.r	.
4.r	.
{4f	{All
8g	das
=31	=31
[4.a	fro-
4a]	|
8c	-he
4f	Lenz-
8a	-ge-
=32	=32
4.cc	-schick
4.b-	nicht
4.a	ein
=33	=33
[4.g	Wort
4g]	|
8g	des
4a	Him-
8g	-mels
=34	=34
4.f	ku2n-
4e}	-det,}
8r	.
{8e	{nur
8d	|
8c	sein
=35	=35
[4.f	stum-
4f]	|
8f	-mer,
4g	war-
8a-	-mer
=36	=36
2.a}	Blick}
{4a	{hat
8a	die
=37	=37
2.a	Se-
4.a	-lig-
=38	=38
2.bn	-keit
4.a	ent-
=39	=39
2.a	-zu2n-
4.a-	|
=40	=40
4.a}	-det.}
4.r	.
4.r	.
=41	=41
{4a	{Al-
8g	-so
4f	in
8e	den
4d	Win-
8e	-ter-
=42	=42
4.f}	-harm,}
4.r	.
{4f	{der
8f	die
=43	=43
[4.b-	See-
4b-]	|
8a	-le
4g	hielt
8d	be-
=44	=44
4.f	-zwun-
4e}	-gen,}
8r	.
{8e	{ist
8d	|
8c	dein
=45	=45
[4.cc	Blick
4cc]	|
8a	mir,
4a	still
8g	und
=46	=46
[4.f	warm,
4f]}	|}
8r	.
{gq	{fru2h-
8f	|
8e	|
8f	-lings-
=47	=47
[4.g	-ma2ch-
4g]	|
8g	-tig
aq	ein-
8g	|
8g-	|
8gn	-ge-
=48	=48
4.b-	-drun-
4a}	-gen,}
8r	.
{4g	{ist
8g	dein
=49	=49
[4.cc	Blick
4cc]	|
8a	mir,
4a	still
8g	und
=50	=50
[4.f	warm,
4f]}	|}
8r	.
{8f	{fru2h-
8e	|
8f	-lings-
=51	=51
4.a	-ma2ch-
4.f	-tig
8f	ein-
8e	|
8f	-ge-
=52	=52
4.cc	-drun-
4.a}	-gen,}
4r	.
{8f	{ja,
=53	=53
[2.dd	ma2ch-
4.dd]	|
=54	=54
[4.ff	|
4ff]	|
8f	-tig
4e	ein-
8f	-ge-
=55	=55
[2.a	-drun-
4a]	|
8g	|
=56	=56
4.f}	-gen.}
4r	.
8r	.
4r	.
8r	.
==	==
*-	*-
